COLOR/action 16/16/zoom-next.svg

<svg height="16" width="16" xmlns="http://www.w3.org/2000/svg"><g stroke-width="1.368679"><path d="m12.285714 14h1.714286v-5.9532194-6.0467805h-1.714286v5.1428572l-10.285714-5.1428572v11.9999999l10.285714-5.1428575z" fill="#1a7fd4"/><path d="m14 2.000001v.4285714h-1.714286v-.4285714zm-11.9999993 0 10.2857133 5.1428567v.4285714l-10.2857133-5.1428567z" fill="#fff" opacity=".3"/><path d="m14 14v-.428571h-1.714286v.428571zm-11.9999993 0 10.2857133-5.1428567v-.4285714l-10.2857133 5.1428571z" opacity=".2"/></g></svg>

<?xml version="1.0" encoding="UTF-8" standalone="no"?>
<svg
   xmlns:dc="http://purl.org/dc/elements/1.1/"
   xmlns:cc="http://creativecommons.org/ns#"
   xmlns:rdf="http://www.w3.org/1999/02/22-rdf-syntax-ns#"
   xmlns:svg="http://www.w3.org/2000/svg"
   xmlns="http://www.w3.org/2000/svg"
   xmlns:sodipodi="http://sodipodi.sourceforge.net/DTD/sodipodi-0.dtd"
   xmlns:inkscape="http://www.inkscape.org/namespaces/inkscape"
   height="16"
   width="16"
   version="1.1"
   id="svg4"
   sodipodi:docname="zoom-next.svg"
   inkscape:version="0.92.4 (5da689c313, 2019-01-14)">
  <metadata
     id="metadata10">
    <rdf:RDF>
      <cc:Work
         rdf:about="">
        <dc:format>image/svg+xml</dc:format>
        <dc:type
           rdf:resource="http://purl.org/dc/dcmitype/StillImage" />
        <dc:title />
      </cc:Work>
    </rdf:RDF>
  </metadata>
  <defs
     id="defs8" />
  <sodipodi:namedview
     pagecolor="#ffffff"
     bordercolor="#808080"
     borderopacity="1"
     objecttolerance="10"
     gridtolerance="10"
     guidetolerance="10"
     inkscape:pageopacity="0"
     inkscape:pageshadow="2"
     inkscape:window-width="1920"
     inkscape:window-height="1016"
     id="namedview6"
     showgrid="false"
     inkscape:zoom="14.75"
     inkscape:cx="-4.9830508"
     inkscape:cy="8"
     inkscape:window-x="0"
     inkscape:window-y="27"
     inkscape:window-maximized="1"
     inkscape:current-layer="svg4" />
  <path
     d="M 12.285714,14 H 14 V 8.0467806 2.0000001 H 12.285714 V 7.1428573 L 2,2.0000001 V 14 L 12.285714,8.8571425 Z"
     id="path2"
     inkscape:connector-curvature="0"
     style="fill:#1a7fd4;stroke-width:1.36867881" />
  <path
     style="opacity:0.3;fill:#ffffff;fill-opacity:1;stroke-width:1.36867881"
     d="M 14,2.000001 V 2.4285724 H 12.285714 V 2.000001 Z m -11.9999993,0 10.2857133,5.1428567 V 7.5714291 L 2.0000007,2.4285724 Z"
     id="path817"
     inkscape:connector-curvature="0" />
  <path
     id="path822"
     d="M 14,14 V 13.571429 H 12.285714 V 14 Z M 2.0000007,14 12.285714,8.8571433 V 8.4285719 L 2.0000007,13.571429 Z"
     style="opacity:0.2;fill:#000000;fill-opacity:1;stroke-width:1.36867881"
     inkscape:connector-curvature="0" />
</svg>
